X:2
%
T:Lady Betty Wemyss's Reel
M:C|
L:1/8
R:Reel
B:Robert Bremner - Collection of Scots Reels, Country Dances (1757, p. 21)
Z:AK/Fiddler's Companion
K:C
EGc2 EGc2|(d/c/B/A/) cE D/D/D D2|EG c2 EGc2|(d/c/B/A/) cE C/C/C C2:|
|:g|egcg ecge|faTg>e d/d/d dg|egcg ecge|fdge c/c/c cg|
Tegcg ecge|faTg>e d/d/d dg|egde cdAc|GEcE C/C/C C:|]

